!!!!SEGMENT: pl-wtm--r-996-1--001-002_krogulski-jozef-wladyslaw--nieszpory-confitebor-tibi.krn
!!!cenid: 18xx:2093
!!!COM: Krogulski, Józef Władysław
!!!COM-rismID:
!!!CDT: 1815/10/04-1842/01/09
!!!CNT: Polish
!!!OPR: Nieszpory
!!!OTL: Confitebor tibi
!!!OMV: 002
!!!PDT: 1836
!!!AGN: Sacred; Vespers
!!!SMS-siglum: PL-Wtm
!!!SMS-shelfmark: R 996/1
!!!SMS-shelfwork: 001-002 M
!!!SMS-variant:
!!!SMS-altvar:
!!!NIFC-rismSourceID: 1001086252
!!!NIFC-islandoraID:
!!!URL-pdf-islandora:
!!!URL-scan:
!!!ONB-nifc: UWAGA: części Nieszporów: 1. Dixit Dominus, 2. Confitebor tibi, 3. Beatus vir, 4. Laudate pueri, 5. Laudate Dominum, 6. Magnificat, 7. Salve Regina. Folder pl-wtm-r996-1
!!!OMD: Allo moderato.
!!!AIN: 1 empty 1 organ 2 soprn 1 tenor
!!!key:
**kern	**kern	**dynam	**kern	**dynam	**text	**mod-text	**kern	**dynam	**text	**text	**mod-text	**kern	**dynam	**text	**mod-text	**kern	**dynam	**text	**text	**mod-text
*part5	*part5	*part5	*part4	*part4	*part4	*part4	*part3	*part3	*part3	*part3	*part3	*part2	*part2	*part2	*part2	*part1	*part1	*part1	*part1	*part1
*staff6	*staff5	*	*staff4	*staff4	*staff4	*staff4	*staff3	*staff3	*staff3	*staff3	*staff3	*staff2	*staff2	*staff2	*staff2	*staff1	*staff1	*staff1	*staff1	*staff1
*Iorgan	*Iorgan	*	*Iempty	*	*	*	*Itenor	*	*	*	*	*Isoprn	*	*	*	*Isoprn	*	*	*	*
*I"Organo.	*I"Organo.	*	*I"Basſo.	*	*	*	*I"Tenori	*	*	*	*	*I"Soprano 2. vel Alto	*	*	*	*I"Soprano	*	*	*	*
*mI"Organo	*mI"Organo	*	*mI"Basso	*	*	*	*mI"Tenore	*	*	*	*	*mI"Soprano 2 / Alto	*	*	*	*mI"Soprano 1	*	*	*	*
*I'org	*I'org	*	*I'B	*	*	*	*I'T	*	*	*	*	*I'S 2 / A	*	*	*	*I'S 1	*	*	*	*
*>[A,A,B]	*>[A,A,B]	*>[A,A,B]	*>[A,A,B]	*>[A,A,B]	*>[A,A,B]	*>[A,A,B]	*>[A,A,B]	*>[A,A,B]	*>[A,A,B]	*>[A,A,B]	*>[A,A,B]	*>[A,A,B]	*>[A,A,B]	*>[A,A,B]	*>[A,A,B]	*>[A,A,B]	*>[A,A,B]	*>[A,A,B]	*>[A,A,B]	*>[A,A,B]
*>A	*>A	*>A	*>A	*>A	*>A	*>A	*>A	*>A	*>A	*>A	*>A	*>A	*>A	*>A	*>A	*>A	*>A	*>A	*>A	*>A
*clefF4	*clefG2	*	*clefF4	*	*	*	*clefG2	*	*	*	*	*clefG2	*	*	*	*clefG2	*	*	*	*
*	*	*	*	*	*	*	*ITrd7c12	*	*	*	*	*	*	*	*	*	*	*	*	*
*k[b-e-]	*k[b-e-]	*	*k[b-e-]	*	*	*	*k[b-e-]	*	*	*	*	*k[b-e-]	*	*	*	*k[b-e-]	*	*	*	*
*B-:	*B-:	*	*B-:	*	*	*	*B-:	*	*	*	*	*B-:	*	*	*	*B-:	*	*	*	*
*M4/4	*M4/4	*	*M4/4	*	*	*	*M4/4	*	*	*	*	*M4/4	*	*	*	*M4/4	*	*	*	*
*met(c)	*met(c)	*	*met(c)	*	*	*	*met(c)	*	*	*	*	*met(c)	*	*	*	*met(c)	*	*	*	*
!!!OMD-mod: Allegro moderato
!	!	!	!	!	!	!	!	!	!	!	!	!	!	!	!	!LO:MO:mod=!LO&colon;TX&colon;a&colon;B&colon;t=Psalmus 110	!	!	!	!
!	!	!LO:DY:rj	!	!LO:DY:b:rj	!	!	!	!LO:DY:b:rj	!	!	!	!	!LO:DY:b:rj	!	!	!LO:TX:a:t=Psalmus 110.	!LO:DY:b:rj	!	!	!
*	*	*	*	*	*ij	*	*	*	*	*	*	*	*	*ij	*	*	*	*	*	*
2B- 2BB-\	4dd 4f\	f	4BB-/	f	Con-	[Con-	4d 4F\	f	Con-	.	Con-	4f/	f	Con-	[Con-	4dd\	f	Con-	.	Con-
.	4cc 4e-\	.	4BB-/	.	-fi-	-fi-	4c 4E-\	.	-fi-	.	-fi-	4e-/	.	-fi-	-fi-	4cc\	.	-fi-	.	-fi-
=1	=1	=1	=1	=1	=1	=1	=1	=1	=1	=1	=1	=1	=1	=1	=1	=1	=1	=1	=1	=1
[1B- [1BB-	2b- 2d/	.	2.BB-/	.	-te-	-te-	(2B- 2D/	.	-te-	.	-te-	(2d/	.	-te-	-te-	(2b-\	.	-te-	.	-te-
.	4cc 4e-/	.	.	.	.	.	4c 4E-/)	.	.	.	.	4e-/)	.	.	.	4cc\)	.	.	.	.
.	4dd 4f/	.	4BB-/	.	-bor	-bor	4d 4F/	.	-bor	.	-bor	4f/	.	-bor	-bor	4dd\	.	-bor	.	-bor
=2	=2	=2	=2	=2	=2	=2	=2	=2	=2	=2	=2	=2	=2	=2	=2	=2	=2	=2	=2	=2
1B-] 1BB-]	2.ee- 2.g\	.	2.BB-/	.	ti-	ti-	2.e- 2.G\	.	ti-	.	ti-	2.g/	.	ti-	ti-	2.ee-\	.	ti-	.	ti-
.	4dd 4f\	.	4BB-/	.	-bi	-bi,	4d 4F\	.	-bi	.	-bi,	4f/	.	-bi	-bi,	4dd\	.	-bi	.	-bi,
=3	=3	=3	=3	=3	=3	=3	=3	=3	=3	=3	=3	=3	=3	=3	=3	=3	=3	=3	=3	=3
!	!	!	!	!	!	!	!LO:SIC:s=([2d [2F\:v	!	!	!	!	!LO:SIC:s=([2f/:v	!	!	!	!LO:SIC:s=([2dd\:v	!	!	!	!
1F 1FF	[2dd [2f\	.	2.FF/	.	Do-	Do-	[2d [2F\	.	Do-	.	Do-	[2f/	.	Do-	Do-	[2dd\	.	Do-	.	Do-
.	8dd]L 8f\]	.	.	.	.	.	8d]L 8F\]	.	.	.	.	8f/L]	.	.	.	8dd\L]	.	.	.	.
!	!	!	!	!	!	!	!LO:SIC:s=8cJ 8E-\):v	!	!	!	!	!LO:SIC:s=8e-/J):v	!	!	!	!LO:SIC:s=8cc\J):v	!	!	!	!
.	8cc 8e-\	.	.	.	.	.	8cJ 8E-\	.	.	.	.	8e-/J	.	.	.	8cc\J	.	.	.	.
!	!	!	!	!	!	!	!LO:SIC:s=(8B-L 8D\:v	!	!	!	!	!LO:SIC:s=(8d/L:v	!	!	!	!LO:SIC:s=(8b-\L:v	!	!	!	!
.	8b- 8d\	.	4FF/	.	-mi-	-mi-	8B-L 8D\	.	-mi-	.	-mi-	8d/L	.	-mi-	-mi-	8b-\L	.	-mi-	.	-mi-
!	!	!	!	!	!	!	!LO:SIC:s=8cJ 8E-\):v	!	!	!	!	!LO:SIC:s=8e-/J):v	!	!	!	!LO:SIC:s=8cc\J):v	!	!	!	!
.	8ccJ 8e-\	.	.	.	.	.	8cJ 8E-\	.	.	.	.	8e-/J	.	.	.	8cc\J	.	.	.	.
!!LO:LB:g=original
=4	=4	=4	=4	=4	=4	=4	=4	=4	=4	=4	=4	=4	=4	=4	=4	=4	=4	=4	=4	=4
[1B- [1BB-	2dd 2f\	.	2BB-/	.	-ne	-ne,	2d 2F\	.	-ne	.	-ne,	2f/	.	-ne	-ne,	2dd\	.	-ne	.	-ne,
.	4ff 4dd\	.	4B-\	.	Con-	con-	4f 4d\	.	Con-	.	con-	4dd\	.	Con-	con-	4ff\	.	Con-	.	con-
.	4ee- 4cc\	.	4B-\	.	-fi-	-fi-	4e- 4c\	.	-fi-	.	-fi-	4cc\	.	-fi-	-fi-	4ee-\	.	-fi-	.	-fi-
=5	=5	=5	=5	=5	=5	=5	=5	=5	=5	=5	=5	=5	=5	=5	=5	=5	=5	=5	=5	=5
1B-_ 1BB-_	2dd 2b-\	.	2.B-\	.	-te-	-te-	(2d 2B-\	.	-te-	.	-te-	(2b-\	.	-te-	-te-	(2dd\	.	-te-	.	-te-
.	4ee- 4cc\	.	.	.	.	.	4e- 4c\)	.	.	.	.	4cc\)	.	.	.	4ee-\)	.	.	.	.
.	4ff 4dd\	.	4B-\	.	-bor	-bor	4f 4d\	.	-bor	.	-bor	4dd\	.	-bor	-bor	4ff\	.	-bor	.	-bor
=6	=6	=6	=6	=6	=6	=6	=6	=6	=6	=6	=6	=6	=6	=6	=6	=6	=6	=6	=6	=6
1B-] 1BB-]	2.gg 2.ee-\	.	2.B-\	.	ti-	ti-	2.g 2.e-\	.	ti-	.	ti-	2.ee-\	.	ti-	ti-	2.gg\	.	ti-	.	ti-
.	4ff 4dd\	.	4B-\	.	-bi	-bi,	4f 4d\	.	-bi	.	-bi,	4dd\	.	-bi	-bi,	4ff\	.	-bi	.	-bi,
=7	=7	=7	=7	=7	=7	=7	=7	=7	=7	=7	=7	=7	=7	=7	=7	=7	=7	=7	=7	=7
!	!	!	!	!	!	!	!LO:SIC:s=([2e- [2c\:v	!	!	!	!	!LO:SIC:s=([2cc\:v	!	!	!	!LO:SIC:s=([2ee-\:v	!	!	!	!
1F 1FF	[2ee- [2cc\	.	2.F\	.	Do-	Do-	[2e- [2c\	.	Do-	.	Do-	[2cc\	.	Do-	Do-	[2ee-\	.	Do-	.	Do-
.	8ee-]L 8cc\]	.	.	.	.	.	8e-]L 8c\]	.	.	.	.	8cc\L]	.	.	.	8ee-\L]	.	.	.	.
!	!	!	!	!	!	!	!LO:SIC:s=8fJ 8d\):v	!	!	!	!	!LO:SIC:s=8dd\J):v	!	!	!	!LO:SIC:s=8ff\J):v	!	!	!	!
.	8ff 8dd\	.	.	.	.	.	8fJ 8d\	.	.	.	.	8dd\J	.	.	.	8ff\J	.	.	.	.
!	!	!	!	!	!	!	!LO:SIC:s=(8gL 8e-\:v	!	!	!	!	!LO:SIC:s=(8ee-\L:v	!	!	!	!LO:SIC:s=(8gg\L:v	!	!	!	!
.	8gg 8ee-\	.	4F\	.	-mi-	-mi-	8gL 8e-\	.	-mi-	.	-mi-	8ee-\L	.	-mi-	-mi-	8gg\L	.	-mi-	.	-mi-
!	!	!	!	!	!	!	!LO:SIC:s=8fJ 8d\):v	!	!	!	!	!LO:SIC:s=8dd\J):v	!	!	!	!LO:SIC:s=8ff\J):v	!	!	!	!
.	8ffJ 8dd\	.	.	.	.	.	8fJ 8d\	.	.	.	.	8dd\J	.	.	.	8ff\J	.	.	.	.
=8	=8	=8	=8	=8	=8	=8	=8	=8	=8	=8	=8	=8	=8	=8	=8	=8	=8	=8	=8	=8
*	*	*	*	*	*	*	*^	*	*	*	*	*	*	*	*	*	*	*	*	*
1B- 1BB-	(4ee- 4cc\	.	2B-\	.	-ne	-ne,	(4e- 4c\	2ryyyy	.	-ne	.	-ne,	(4cc\	.	-ne	-ne,	(4ee-\	.	-ne	.	-ne,
.	4dd 4b-\)	.	.	.	.	.	4d 4B-\)	.	.	.	.	.	4b-\)	.	.	.	4dd\)	.	.	.	.
.	4r	.	4r	.	.	.	4r	4ryy	.	.	.	.	4r	.	.	.	4r	.	.	.	.
.	4b-\	.	4B-\	.	in	in	4B-/	4B-\	.	in	.	in	4b-\	.	in	in	4b-\	.	in	.	in
*	*	*	*	*	*	*	*v	*v	*	*	*	*	*	*	*	*	*	*	*	*	*
=9	=9	=9	=9	=9	=9	=9	=9	=9	=9	=9	=9	=9	=9	=9	=9	=9	=9	=9	=9	=9
2G\	2ee- 2b-\	.	2G\	.	to-	to-	2e- 2B-\	.	to-	.	to-	2b-\	.	to-	to-	2ee-\	.	to-	.	to-
2F\	2dd 2b-\	.	2F\	.	-to	-to	2d 2B-\	.	-to	.	-to	2b-\	.	-to	-to	2dd\	.	-to	.	-to
=10	=10	=10	=10	=10	=10	=10	=10	=10	=10	=10	=10	=10	=10	=10	=10	=10	=10	=10	=10	=10
2E-\	2gg 2b-\	.	2E-\	.	cor-	cor-	2g 2B-\	.	cor-	.	cor-	2b-\	.	cor-	cor-	2gg\	.	cor-	.	cor-
2D\	2ff 2b-\	.	2D\	.	-de	-de	2f 2B-\	.	-de	.	-de	2b-\	.	-de	-de	2ff\	.	-de	.	-de
=11	=11	=11	=11	=11	=11	=11	=11	=11	=11	=11	=11	=11	=11	=11	=11	=11	=11	=11	=11	=11
*	*^	*	*	*	*	*	*^	*	*	*	*	*	*	*	*	*	*	*	*	*
!	!	!	!	!	!	!	!	!	!LO:SIC:s=(2B-\:v	!	!	!	!	!	!	!	!	!	!	!	!	!
2C\	2.ee-/	2b- 2g\	.	(2C\	.	me-	me-	1e-	2B-\	.	me-	.	me-	(2g/	.	me-	me-	(2.ee-\	.	me-	.	me-
!	!	!	!	!	!	!	!	!	!LO:MO:mod=!null:null	!	!	!	!	!	!	!	!	!	!	!	!	!
!	!	!	!	!	!	!	!	!	!LO:TX:t=P:problem=skreślona nuta	!	!	!	!	!	!	!	!	!	!	!	!	!
!	!	!	!	!	!	!	!	!	!LO:SIC:s=2c\):v	!	!	!	!	!	!	!	!	!	!	!	!	!
2F\	.	2cc 2a\	.	2F\)	.	.	.	.	2c\	.	.	.	.	2a/)	.	.	.	.	.	.	.	.
.	8ff/L	.	.	.	.	.	.	.	.	.	.	.	.	.	.	.	.	8ff\L	.	.	.	.
.	8ee-/J	.	.	.	.	.	.	.	.	.	.	.	.	.	.	.	.	8ee-\J)	.	.	.	.
*	*v	*v	*	*	*	*	*	*v	*v	*	*	*	*	*	*	*	*	*	*	*	*	*
=12	=12	=12	=12	=12	=12	=12	=12	=12	=12	=12	=12	=12	=12	=12	=12	=12	=12	=12	=12	=12
2BB-/	2dd 2b-\	.	2BB-/	.	-o	-o,	2d 2B-\	.	-o	.	-o,	2b-\	.	o	-o,	2dd\	.	-o	.	-o,
4r	4r	.	4r	.	.	.	4r	.	.	.	.	4r	.	.	.	4r	.	.	.	.
4B-\	4dd 4b-\	.	4B-\	.	in	in	4d 4B-\	.	in	.	in	4b-\	.	in	in	4dd\	.	in	.	in
=13	=13	=13	=13	=13	=13	=13	=13	=13	=13	=13	=13	=13	=13	=13	=13	=13	=13	=13	=13	=13
1G	1dd 1b-	.	2G\	.	to-	to-	2d 2B-\	.	to-	.	to-	2b-\	.	to-	to-	2dd\	.	to-	.	to-
.	.	.	2G\	.	-to	-to	2d 2B-\	.	-to	.	-to	2b-\	.	-to	-to	2dd\	.	-to	.	-to
=14	=14	=14	=14	=14	=14	=14	=14	=14	=14	=14	=14	=14	=14	=14	=14	=14	=14	=14	=14	=14
4E-\	4ff 4a\	.	(4E-\	.	cor-	cor-	(4f 4A\	.	cor-	.	cor-	(4a/	.	cor-	cor-	(4ff\	.	cor-	.	cor-
4C\	4ee- 4g\	.	4C\	.	.	.	4e- 4G\	.	.	.	.	4g/	.	.	.	4ee-\	.	.	.	.
4D\	4dd 4f\	.	4D\)	.	.	.	4d 4F\)	.	.	.	.	4f/)	.	.	.	4dd\)	.	.	.	.
4E-\	4cc 4e-\	.	4E-\	.	-de	-de	4c 4G\	.	-de	.	-de	4e-/	.	-de	-de	4cc\	.	-de	.	-de
=15	=15	=15	=15	=15	=15	=15	=15	=15	=15	=15	=15	=15	=15	=15	=15	=15	=15	=15	=15	=15
1F	2.b- 2.d/	.	1F	.	me-	me-	(2.d 2.B-\	.	me-	.	me-	1f	.	me-	me-	(2.b-\	.	me-	.	me-
.	8ccL 8e-/	.	.	.	.	.	8e-L 8c\	.	.	.	.	.	.	.	.	8cc\L	.	.	.	.
.	8b-J 8d/	.	.	.	.	.	8dJ 8B-\)	.	.	.	.	.	.	.	.	8b-\J)	.	.	.	.
=	=	=	=	=	=	=	=	=	=	=	=	=	=	=	=	=	=	=	=	=
2FF/	2a 2c/	.	2F\	.	-o	-o:	2c 2A\	.	-o	.	-o:	2f/	.	-o	-o:	2a/	.	-o	.	-o:
=16:|!	=16:|!	=16:|!	=16:|!	=16:|!	=16:|!	=16:|!	=16:|!	=16:|!	=16:|!	=16:|!	=16:|!	=16:|!	=16:|!	=16:|!	=16:|!	=16:|!	=16:|!	=16:|!	=16:|!	=16:|!
*>B	*>B	*>B	*>B	*>B	*>B	*>B	*>B	*>B	*>B	*>B	*>B	*>B	*>B	*>B	*>B	*>B	*>B	*>B	*>B	*>B
!	!	!	!	!LO:DY:b	!	!	!	!LO:DY:b	!	!	!	!	!LO:DY:b	!	!	!	!	!	!	!
!	!	!LO:MO:mod=!null:null	!	!LO:MO:mod=!null:null	!	!	!	!LO:MO:mod=!null:null	!	!	!	!	!LO:MO:mod=!null:null	!	!	!	!	!	!	!
4r	4r	p	4r	p	.	.	4r	p	.	.	.	4r	p	.	.	4r	.	.	.	.
!	!	!	!	!	!	!	!	!	!	!	!	!	!	!	!	!	!LO:DY:b:rj	!	!	!
!	!	!LO:DY:t= :mod=%s	!	!LO:DY:t= :mod=%s	!	!	!	!LO:DY:t= :mod=%s	!	!	!	!	!LO:DY:t= :mod=%s	!	!	!	!	!	!	!
!	!	!LO:MO:mod=!LO&colon;DY&colon;ed=	!	!LO:MO:mod=!LO&colon;DY&colon;ed=	!	!	!	!LO:MO:mod=!LO&colon;DY&colon;ed=	!	!	!	!	!LO:MO:mod=!LO&colon;DY&colon;ed=	!	!	!	!	!	!	!
!	!	!null	!	!null	!	!	!	!null	!	!	!	!	!null	!	!	!	!	!	!	!
4F 4FF/	4cc 4a\	p	8F\	p	in	in	8c 8A\	p	in	.	in	8a/	p	in	in	8cc\	p	in	.	in
.	.	.	8F\	.	con-	con-	8c 8A\	.	con-	.	con-	8a/	.	con-	con-	8cc\	.	con-	.	con-
=17	=17	=17	=17	=17	=17	=17	=17	=17	=17	=17	=17	=17	=17	=17	=17	=17	=17	=17	=17	=17
!	!	!	!LO:MO:mod=!null:null	!	!	!	!	!	!	!	!	!	!	!	!	!	!	!	!	!
!	!	!	!LO:TX:t=P:problem=skreślone nuty	!	!	!	!	!	!	!LO:MO:mod=.	!	!	!	!	!	!	!	!	!LO:MO:mod=.	!
[1F [1FF	2.cc 2.a\	.	1F	.	-si-	-si-	(2.c 2.A\	.	-si-	[[con-	-si-	(2.a/	.	-si-	-si-	(2.cc\	.	-si-	[[con-	-si-
!	!	!	!	!	!	!	!	!	!	!LO:MO:mod=.	!	!	!	!	!	!	!	!	!LO:MO:mod=.	!
.	4b- 4g\	.	.	.	.	.	4B- 4G\	.	.	-si-	.	4g/	.	.	.	4b-\	.	.	-si-	.
=18	=18	=18	=18	=18	=18	=18	=18	=18	=18	=18	=18	=18	=18	=18	=18	=18	=18	=18	=18	=18
!	!	!	!	!	!	!	!LO:MO:mod=!null:null	!	!	!	!	!LO:MO:mod=!null:null	!	!	!	!LO:MO:mod=!null:null	!	!	!	!
!	!	!	!	!	!	!	!LO:TX:b:t=P:problem=skreślony łuk	!	!	!LO:MO:mod=.	!	!LO:TX:b:t=P:problem=skreślony łuk	!	!	!	!LO:TX:b:t=P:problem=skreślony łuk	!	!	!LO:MO:mod=.	!
1F_ 1FF_	4a 4f/	.	2FF/	.	-li-	-li-	4A 4F/)	.	.	-li-	.	4f/)	.	.	.	4a/)	.	.	-li]]	.
.	4g 4en/	.	.	.	.	.	4G 4En/	.	-li-	.	-li-	4en/	.	-li-	-li-	4g/	.	-li-	.	-li-
!	!	!	!	!	!	!	!	!	!	!LO:MO:mod=.	!	!	!	!	!	!	!	!	!	!
.	4a 4f/	.	4FF/	.	-o	-o	4A 4F/	.	-o	-o]]	-o	4f/	.	-o	-o	4a/	.	-o	.	-o
.	4b- 4g/	.	4FF/	.	ju-	ju-	4B- 4G/	.	ju-	.	ju-	4g/	.	ju-	ju-	4b-/	.	ju-	.	ju-
=19	=19	=19	=19	=19	=19	=19	=19	=19	=19	=19	=19	=19	=19	=19	=19	=19	=19	=19	=19	=19
1F_ 1FF_	(2.cc 2.a\	.	1F	.	-sto-	-sto-	(2.c 2.A\	.	-sto-	.	-sto-	(2.a/	.	-sto-	-sto-	(2.cc\	.	-sto-	.	-sto-
.	4dd 4b-\)	.	.	.	.	.	4d 4B-\)	.	.	.	.	4b-/)	.	.	.	4dd\)	.	.	.	.
=20	=20	=20	=20	=20	=20	=20	=20	=20	=20	=20	=20	=20	=20	=20	=20	=20	=20	=20	=20	=20
*	*	*	*	*	*	*	*^	*	*	*	*	*	*	*	*	*	*	*	*	*
1F] 1FF]	2cc 2a\	.	2F\	.	-rum	-rum	2c 2A\	2ryyyy	.	-rum	.	-rum	2a/	.	-rum	-rum	2cc\	.	-rum	.	-rum
.	4r	.	4r	.	.	.	4r	4ryy	.	.	.	.	4r	.	.	.	4r	.	.	.	.
!LO:MO:mod=!null:null	!	!	!	!	!	!	!	!	!	!	!	!	!	!	!	!	!	!	!	!	!
!LO:TX:b:t=VS.	!	!	!	!	!	!	!	!	!	!	!	!	!	!	!	!	!	!	!	!	!
.	4f/	.	4F\	.	et	et	4F/	4F\	.	et	.	et	4f/	.	et	et	4f/	.	et	.	et
*	*	*	*	*	*	*	*v	*v	*	*	*	*	*	*	*	*	*	*	*	*	*
!!LO:PB:g=original
=21	=21	=21	=21	=21	=21	=21	=21	=21	=21	=21	=21	=21	=21	=21	=21	=21	=21	=21	=21	=21
2BB-/	2dd 2f\	.	2BB-/	.	con-	con-	2d 2F\	.	con-	.	con-	2f/	.	con-	con-	2dd\	.	con-	.	con-
2AA/	2cc 2f\	.	2AA/	.	-gre-	-gre-	2c 2F\	.	-gre-	.	-gre-	2f/	.	-gre-	-gre-	2cc\	.	-gre-	.	-gre-
=22	=22	=22	=22	=22	=22	=22	=22	=22	=22	=22	=22	=22	=22	=22	=22	=22	=22	=22	=22	=22
*	*^	*	*	*	*	*	*^	*	*	*	*	*	*	*	*	*	*	*	*	*
2.GG/	2cc/	2.en\	.	2.GG/	.	-ga-	-ga-	(2c/	2.En\	.	-ga-	.	-ga-	2.en/	.	-ga-	-ga-	(2cc\	.	-ga-	.	-ga-
.	4b-/	.	.	.	.	.	.	4B-/)	.	.	.	.	.	.	.	.	.	4b-\)	.	.	.	.
!	!	!	!	!LO:SIC:s=(8AA/L:v	!	!	!	!	!	!	!	!	!	!	!	!	!	!	!	!	!	!
8AA/L	4a/	4f\	.	8AA/L	.	-ti-	-ti-	4A/	4F\	.	-ti-	.	-ti-	4f/	.	-ti-	-ti-	4a/	.	-ti-	.	-ti-
!	!	!	!	!LO:SIC:s=8BB-/J):v	!	!	!	!	!	!	!	!	!	!	!	!	!	!	!	!	!	!
8BB-/J	.	.	.	8BB-/J	.	.	.	.	.	.	.	.	.	.	.	.	.	.	.	.	.	.
*	*v	*v	*	*	*	*	*	*v	*v	*	*	*	*	*	*	*	*	*	*	*	*	*
=23	=23	=23	=23	=23	=23	=23	=23	=23	=23	=23	=23	=23	=23	=23	=23	=23	=23	=23	=23	=23
1C	2.g 2.en/	.	1C	.	-o-	-o-	(2.G 2.En/	.	-o-	.	-o-	(2.en/	.	-o-	-o-	(2.g/	.	-o-	.	-o-
.	8b-L 8g/	.	.	.	.	.	8B-L 8G/	.	.	.	.	8g/L	.	.	.	8b-/L	.	.	.	.
.	8aJ 8f/	.	.	.	.	.	8AJ 8F/)	.	.	.	.	8f/J)	.	.	.	8a/J)	.	.	.	.
=24	=24	=24	=24	=24	=24	=24	=24	=24	=24	=24	=24	=24	=24	=24	=24	=24	=24	=24	=24	=24
2C/	2g 2en/	.	2C/	.	-ne	-ne,	2G 2En/	.	-ne	.	-ne,	2en/	.	-ne	-ne,	2g/	.	-ne	.	-ne,
4r	4r	.	4r	.	.	.	4r	.	.	.	.	4r	.	.	.	4r	.	.	.	.
4F 4FF/	4cc 4a\	.	8F\	.	in	in	8c 8A\	.	in	.	in	8a/	.	in	in	8cc\	.	in	.	in
.	.	.	8F\	.	con-	con-	8c 8A\	.	con-	.	con-	8a/	.	con-	con-	8cc\	.	con-	.	con-
=25	=25	=25	=25	=25	=25	=25	=25	=25	=25	=25	=25	=25	=25	=25	=25	=25	=25	=25	=25	=25
!	!	!	!LO:MO:mod=!null:null	!	!	!	!	!	!	!	!	!	!	!	!	!	!	!	!	!
!	!	!	!LO:TX:t=P:problem=skreślone nuty	!	!	!	!	!	!	!LO:MO:mod=.	!	!	!	!	!	!	!	!	!LO:MO:mod=.	!
[1F [1FF	2.cc 2.a\	.	1F	.	-si-	-si-	(2.c 2.A\	.	-si-	[[con-	-si-	(2.a/	.	-si-	-si-	(2.cc\	.	-si-	[[con-	-si-
!	!	!	!	!	!	!	!	!	!	!LO:MO:mod=.	!	!	!	!	!	!	!	!	!LO:MO:mod=.	!
.	4b- 4g\	.	.	.	.	.	4B- 4G\	.	.	-si-	.	4g/	.	.	.	4b-\	.	.	-si-	.
=26	=26	=26	=26	=26	=26	=26	=26	=26	=26	=26	=26	=26	=26	=26	=26	=26	=26	=26	=26	=26
!	!	!	!	!	!	!	!LO:MO:mod=!null:null	!	!	!	!	!LO:MO:mod=!null:null	!	!	!	!LO:MO:mod=!null:null	!	!	!	!
!	!	!	!	!	!	!	!LO:TX:b:t=P:problem=skreślony łuk	!	!	!LO:MO:mod=.	!	!LO:TX:b:t=P:problem=skreślony łuk	!	!	!	!LO:TX:t=P:problem=skreślony łuk	!	!	!LO:MO:mod=.	!
1F_ 1FF_	4a 4f\	.	2FF/	.	-li-	-li-	4A 4F/)	.	.	-li-	.	4f/)	.	.	.	4a\)	.	.	-li]]	.
.	4g 4en\	.	.	.	.	.	4G 4En/	.	-li-	.	-li-	4en/	.	-li-	-li-	4g\	.	-li-	.	-li-
!	!	!	!	!	!	!	!	!	!	!LO:MO:mod=.	!	!	!	!	!	!	!	!	!	!
.	4a 4f\	.	4FF/	.	-o-	-o	4A 4F/	.	-o	-o]]	-o	4f/	.	-o	-o	4a\	.	-o	.	-o
.	4b- 4g\	.	4FF/	.	-ju-	ju-	4B- 4G/	.	ju-	.	ju-	4g/	.	ju-	ju-	4b-\	.	ju-	.	ju-
=27	=27	=27	=27	=27	=27	=27	=27	=27	=27	=27	=27	=27	=27	=27	=27	=27	=27	=27	=27	=27
1F_ 1FF_	2.cc 2.a\	.	1F	.	-sto-	-sto-	(2.c 2.A\	.	-sto-	.	-sto-	(2.a/	.	-sto-	-sto-	(2.cc\	.	-sto-	.	-sto-
.	4dd 4b-\	.	.	.	.	.	4d 4B-\)	.	.	.	.	4b-/)	.	.	.	4dd\)	.	.	.	.
=28	=28	=28	=28	=28	=28	=28	=28	=28	=28	=28	=28	=28	=28	=28	=28	=28	=28	=28	=28	=28
1F] 1FF]	2cc 2a\	.	2F\	.	-rum	-rum	2c 2A\	.	-rum	.	-rum	2a/	.	-rum	-rum	2cc\	.	-rum	.	-rum
.	4r	.	4r	.	.	.	4r	.	.	.	.	4r	.	.	.	4r	.	.	.	.
.	4cc 4a\	.	4F\	.	et	et	4c 4A\	.	et	.	et	4a/	.	et	et	4cc\	.	et	.	et
=29	=29	=29	=29	=29	=29	=29	=29	=29	=29	=29	=29	=29	=29	=29	=29	=29	=29	=29	=29	=29
!	!	!LO:DY:rj	!	!LO:DY:b:rj	!	!	!	!LO:DY:b:rj	!	!	!	!	!LO:DY:b:rj	!	!	!	!LO:DY:b:rj	!	!	!
1B- 1BB-	4gg 4een\	f	2.BB-/	f	con-	con-	(4g 4en\	f	con-	.	con-	(4een\	f	con-	con-	(4gg\	f	con-	.	con-
.	4ff 4dd\	.	.	.	.	.	4f 4d\	.	.	.	.	4dd\	.	.	.	4ff\	.	.	.	.
.	4ee 4cc\	.	.	.	.	.	4e 4c\)	.	.	.	.	4cc\)	.	.	.	4een\)	.	.	.	.
.	4dd 4b-\	.	4BB-/	.	-gre-	-gre-	4d 4B-\	.	-gre-	.	-gre-	4b-\	.	-gre-	-gre-	4dd\	.	-gre-	.	-gre-
=30	=30	=30	=30	=30	=30	=30	=30	=30	=30	=30	=30	=30	=30	=30	=30	=30	=30	=30	=30	=30
1c 1C	2cc 2a\	.	2.C/	.	-ga-	-ga-	(2c 2A/	.	-ga-	.	-ga-	(2a/	.	-ga-	-ga-	(2cc\	.	-ga-	.	-ga-
.	4b- 4g\	.	.	.	.	.	4B- 4G/)	.	.	.	.	4g/)	.	.	.	4b-\)	.	.	.	.
.	4a 4f\	.	4C/	.	-ti-	-ti-	4A 4F/	.	-ti-	.	-ti-	4f/	.	-ti-	-ti-	4a\	.	-ti-	.	-ti-
=31	=31	=31	=31	=31	=31	=31	=31	=31	=31	=31	=31	=31	=31	=31	=31	=31	=31	=31	=31	=31
1C 1CC	2.g 2.en/	.	1C	.	-o-	-o-	(2.G 2.En/	.	-o-	.	-o-	(2.en/	.	-o-	-o-	(2.g/	.	-o-	.	-o-
.	8aL 8f/	.	.	.	.	.	8AL 8F/	.	.	.	.	8f/L	.	.	.	8a/L	.	.	.	.
.	8b-J 8g/	.	.	.	.	.	8B-J 8G/)	.	.	.	.	8g/J)	.	.	.	8b-/J)	.	.	.	.
=32	=32	=32	=32	=32	=32	=32	=32	=32	=32	=32	=32	=32	=32	=32	=32	=32	=32	=32	=32	=32
2F 2FF;/	2a 2f;/	.	2F;\	.	-ne	-ne.	2A 2F;/	.	-ne	.	-ne.	2f;/	.	-ne	-ne.	2a;/	.	-ne	.	-ne.
!	!	!LO:DY:rj	!	!LO:DY:b:rj	!	!	!	!LO:DY:b:rj	!	!	!	!	!LO:DY:b:rj	!	!	!	!LO:DY:b:rj	!	!	!
2B- 2BB-\	4dd 4f\	f	4BB-/	f	Ma-	Ma-	4d 4F\	f	Ma-	.	Ma-	4f/	f	Ma-	Ma-	4dd\	f	Ma-	.	Ma-
.	4cc 4e-X\	.	4BB-/	.	-gna	-gna	4c 4E-X\	.	-gna	.	-gna	4e-X/	.	-gna	-gna	4cc\	.	-gna	.	-gna
=33	=33	=33	=33	=33	=33	=33	=33	=33	=33	=33	=33	=33	=33	=33	=33	=33	=33	=33	=33	=33
[1B- [1BB-	2b- 2d/	.	2BB-/	.	o-	o-	2B- 2D/	.	o-	.	o-	2d/	.	o-	o-	2b-\	.	o-	.	o-
.	4cc 4e-\	.	4BB-/	.	-pe-	-pe-	4c 4E-\	.	-pe-	.	-pe-	4e-/	.	-pe-	-pe-	4cc\	.	-pe-	.	-pe-
.	4dd 4f\	.	4BB-/	.	-ra	-ra	4d 4F\	.	-ra	.	-ra	4f/	.	-ra	-ra	4dd\	.	-ra	.	-ra
=34	=34	=34	=34	=34	=34	=34	=34	=34	=34	=34	=34	=34	=34	=34	=34	=34	=34	=34	=34	=34
1B-] 1BB-]	2.ee- 2.g\	.	2BB-/	.	Do-	Do-	2e- 2G\	.	Do-	.	Do-	2g/	.	Do-	Do-	2ee-\	.	Do-	.	Do-
.	.	.	4BB-/	.	-mi-	-mi-	4e- 4G\	.	-mi-	.	-mi-	4g/	.	-mi-	-mi-	4ee-\	.	-mi-	.	-mi-
.	4dd 4f\	.	4BB-/	.	-ni	-ni:	4d 4F\	.	-ni	.	-ni:	4f/	.	-ni	-ni:	4dd\	.	-ni	.	-ni:
=35	=35	=35	=35	=35	=35	=35	=35	=35	=35	=35	=35	=35	=35	=35	=35	=35	=35	=35	=35	=35
!	!	!	!LO:MO:mod=!null:null	!	!	!	!	!	!	!	!	!	!	!	!	!	!	!	!	!
!	!	!	!LO:TX:t=P:problem=skreślone nuty w tt. 35-36	!	!	!	!	!	!	!	!	!	!	!	!	!	!	!	!	!
!	!	!	!	!	!	!	!LO:SIC:s=([2d [2F\:v	!	!	!	!	!LO:SIC:s=([2f/:v	!	!	!	!LO:SIC:s=([2dd\:v	!	!	!	!
1F 1FF	[2dd [2f/	.	2.FF/	.	ex-	ex-	[2d [2F\	.	ex-	.	ex-	[2f/	.	ex-	ex-	[2dd\	.	ex-	.	ex-
.	8dd]L 8f/]	.	.	.	.	.	8d]L 8F\]	.	.	.	.	8f/L]	.	.	.	8dd\L]	.	.	.	.
!	!	!	!	!	!	!	!LO:SIC:s=8cJ 8E-\):v	!	!	!	!	!LO:SIC:s=8e-/J):v	!	!	!	!LO:SIC:s=8cc\J):v	!	!	!	!
.	8cc 8e-/	.	.	.	.	.	8cJ 8E-\	.	.	.	.	8e-/J	.	.	.	8cc\J	.	.	.	.
!	!	!	!	!	!	!	!LO:SIC:s=(8B-L 8D\:v	!	!	!	!	!LO:SIC:s=(8d/L:v	!	!	!	!LO:SIC:s=(8b-\L:v	!	!	!	!
.	8b- 8d/	.	4FF/	.	-qui-	-qui-	8B-L 8D\	.	-qui-	.	-qui-	8d/L	.	-qui-	-qui-	8b-\L	.	-qui-	.	-qui-
!	!	!	!	!	!	!	!LO:SIC:s=8cJ 8E-\):v	!	!	!	!	!LO:SIC:s=8e-/J):v	!	!	!	!LO:SIC:s=8cc\J):v	!	!	!	!
.	8ccJ 8e-/	.	.	.	.	.	8cJ 8E-\	.	.	.	.	8e-/J	.	.	.	8cc\J	.	.	.	.
=36	=36	=36	=36	=36	=36	=36	=36	=36	=36	=36	=36	=36	=36	=36	=36	=36	=36	=36	=36	=36
[1B- [1BB-	2dd 2f\	.	4BB-/	.	-si-	-si-	4d 4F\	.	-si-	.	-si-	4f/	.	-si-	-si-	4dd\	.	-si-	.	-si-
.	.	.	4BB-/	.	-ta	-ta,	4d 4F\	.	-ta	.	-ta,	4f/	.	-ta	-ta,	4dd\	.	-ta	.	-ta,
.	4ff 4dd\	.	4B-\	.	Ma-	Ma-	4f 4d\	.	Ma-	.	Ma-	4dd\	.	Ma-	Ma-	4ff\	.	Ma-	.	Ma-
.	4ee- 4cc\	.	4B-\	.	-gna	-gna	4e- 4c\	.	-gna	.	-gna	4cc\	.	-gna	-gna	4ee-\	.	-gna	.	-gna
=37	=37	=37	=37	=37	=37	=37	=37	=37	=37	=37	=37	=37	=37	=37	=37	=37	=37	=37	=37	=37
1B-_ 1BB-_	2dd 2b-\	.	2B-\	.	o-	o-	2d 2B-\	.	o-	.	o-	2b-\	.	o-	o-	2dd\	.	o-	.	o-
.	4ee- 4cc\	.	4B-\	.	-pe-	-pe-	4e- 4c\	.	-pe-	.	-pe-	4cc\	.	-pe-	-pe-	4ee-\	.	-pe-	.	-pe-
.	4ff 4dd\	.	4B-\	.	-ra	-ra	4f 4d\	.	-ra	.	-ra	4dd\	.	-ra	-ra	4ff\	.	-ra	.	-ra
!!LO:LB:g=original
=38	=38	=38	=38	=38	=38	=38	=38	=38	=38	=38	=38	=38	=38	=38	=38	=38	=38	=38	=38	=38
1B-] 1BB-]	2.gg 2.ee-\	.	2B-\	.	Do-	Do-	2g 2e-\	.	Do-	.	Do-	2ee-\	.	Do-	Do-	2gg\	.	Do-	.	Do-
.	.	.	4B-\	.	-mi-	-mi-	4g 4e-\	.	-mi-	.	-mi-	4ee-\	.	-mi-	-mi-	4gg\	.	-mi-	.	-mi-
.	4ff 4dd\	.	4B-\	.	-ni	-ni	4f 4d\	.	-ni	.	-ni	4dd\	.	-ni	-ni	4ff\	.	-ni	.	-ni
=39	=39	=39	=39	=39	=39	=39	=39	=39	=39	=39	=39	=39	=39	=39	=39	=39	=39	=39	=39	=39
!	!	!	!	!	!	!	!LO:SIC:s=([2e- [2c\:v	!	!	!	!	!LO:SIC:s=([2cc\:v	!	!	!	!LO:SIC:s=([2ee-\:v	!	!	!	!
1F 1FF	[2ee- [2cc\	.	2.F\	.	ex-	ex-	[2e- [2c\	.	ex-	.	ex-	[2cc\	.	ex-	ex-	[2ee-\	.	ex-	.	ex-
.	8ee-]L 8cc\]	.	.	.	.	.	8e-]L 8c\]	.	.	.	.	8cc\L]	.	.	.	8ee-\L]	.	.	.	.
!	!	!	!	!	!	!	!LO:SIC:s=8fJ 8d\):v	!	!	!	!	!LO:SIC:s=8dd\J):v	!	!	!	!LO:SIC:s=8ff\J):v	!	!	!	!
.	8ff 8dd\	.	.	.	.	.	8fJ 8d\	.	.	.	.	8dd\J	.	.	.	8ff\J	.	.	.	.
!	!	!	!	!	!	!	!LO:SIC:s=(8gL 8e-\:v	!	!	!	!	!LO:SIC:s=(8ee-\L:v	!	!	!	!LO:SIC:s=(8gg\L:v	!	!	!	!
.	8gg 8ee-\	.	4F\	.	-qui-	-qui-	8gL 8e-\	.	-qui-	.	-qui-	8ee-\L	.	-qui-	-qui-	8gg\L	.	-qui-	.	-qui-
!	!	!	!	!	!	!	!LO:SIC:s=8fJ 8d\):v	!	!	!	!	!LO:SIC:s=8dd\J):v	!	!	!	!LO:SIC:s=8ff\J):v	!	!	!	!
.	8ffJ 8dd\	.	.	.	.	.	8fJ 8d\	.	.	.	.	8dd\J	.	.	.	8ff\J	.	.	.	.
=40	=40	=40	=40	=40	=40	=40	=40	=40	=40	=40	=40	=40	=40	=40	=40	=40	=40	=40	=40	=40
*	*	*	*	*	*	*	*^	*	*	*	*	*	*	*	*	*	*	*	*	*
1B- 1BB-	4ee- 4cc\	.	4B-\	.	-si-	-si-	4e- 4c\	2ryyyy	.	-si-	.	-si-	4cc\	.	-si-	-si-	4ee-\	.	-si-	.	-si-
.	4dd 4b-\	.	4B-\	.	-ta	-ta	4d 4B-\	.	.	-ta	.	-ta	4b-\	.	-ta	-ta	4dd\	.	-ta	.	-ta
.	4r	.	4r	.	.	.	4r	4ryy	.	.	.	.	4r	.	.	.	4r	.	.	.	.
.	4b-\	.	4B-\	.	in	in	4B-/	4B-\	.	in	.	in	4b-\	.	in	in	4b-\	.	in	.	in
*	*	*	*	*	*	*	*v	*v	*	*	*	*	*	*	*	*	*	*	*	*	*
=41	=41	=41	=41	=41	=41	=41	=41	=41	=41	=41	=41	=41	=41	=41	=41	=41	=41	=41	=41	=41
2G\	2ee- 2b-\	.	2G\	.	om-	om-	2e- 2B-\	.	om-	.	om-	2b-\	.	om-	om-	2ee-\	.	om-	.	om-
2F\	2dd 2b-\	.	2F\	.	-nes	-nes	2d 2B-\	.	-nes	.	-nes	2b-\	.	-nes	-nes	2dd\	.	-nes	.	-nes
=42	=42	=42	=42	=42	=42	=42	=42	=42	=42	=42	=42	=42	=42	=42	=42	=42	=42	=42	=42	=42
2E-\	2gg 2b-\	.	2E-\	.	vo-	vo-	2g 2B-\	.	vo-	.	vo-	2b-\	.	vo-	vo-	2gg\	.	vo-	.	vo-
2D\	2ff 2b-\	.	2D\	.	-lun-	-lun-	2f 2B-\	.	-lun-	.	-lun-	2b-\	.	-lun-	-lun-	2ff\	.	-lun-	.	-lun-
=43	=43	=43	=43	=43	=43	=43	=43	=43	=43	=43	=43	=43	=43	=43	=43	=43	=43	=43	=43	=43
*	*^	*	*	*	*	*	*^	*	*	*	*	*	*	*	*	*	*	*	*	*
!	!	!	!	!	!	!	!	!	!LO:SIC:s=(2B-\:v	!	!	!	!	!	!	!	!	!	!	!	!	!
2C\	2.ee-/	2b- 2g\	.	(2C\	.	-ta-	-ta-	1e-	2B-\	.	-ta-	.	-ta-	(2g/	.	-ta-	-ta-	(2.ee-\	.	-ta-	.	-ta-
!	!	!	!	!	!	!	!	!	!LO:SIC:s=2c\):v	!	!	!	!	!	!	!	!	!	!	!	!	!
2F\	.	2cc 2a\	.	2F\)	.	.	.	.	2c\	.	.	.	.	2a/)	.	.	.	.	.	.	.	.
.	8ff/L	.	.	.	.	.	.	.	.	.	.	.	.	.	.	.	.	8ff\L	.	.	.	.
.	8ee-/J	.	.	.	.	.	.	.	.	.	.	.	.	.	.	.	.	8ee-\J)	.	.	.	.
*	*v	*v	*	*	*	*	*	*v	*v	*	*	*	*	*	*	*	*	*	*	*	*	*
=44	=44	=44	=44	=44	=44	=44	=44	=44	=44	=44	=44	=44	=44	=44	=44	=44	=44	=44	=44	=44
2BB-/	2dd 2b-\	.	2BB-/	.	-te	-tes,	2d 2B-\	.	te	.	-tes,	2b-\	.	-te	-tes,	2dd\	.	-te	.	-tes,
4r	4r	.	4r	.	.	.	4r	.	.	.	.	4r	.	.	.	4r	.	.	.	.
4B-\	4dd 4b-\	.	4B-\	.	in	in	4d 4B-\	.	in	.	in	4b-\	.	in	in	4dd\	.	in	.	in
=45	=45	=45	=45	=45	=45	=45	=45	=45	=45	=45	=45	=45	=45	=45	=45	=45	=45	=45	=45	=45
1G	1dd 1b-	.	2G\	.	om-	om-	2d 2B-\	.	om-	.	om-	2b-\	.	om-	om-	2dd\	.	om-	.	om-
.	.	.	2G\	.	-nes	-nes	2d 2B-\	.	-nes	.	-nes	2b-\	.	-nes	-nes	2dd\	.	-nes	.	-nes
=46	=46	=46	=46	=46	=46	=46	=46	=46	=46	=46	=46	=46	=46	=46	=46	=46	=46	=46	=46	=46
4E-\	4ff 4a\	.	(4E-\	.	vo-	vo-	(4f 4A\	.	vo-	.	vo-	(4a/	.	vo-	vo-	(4ff\	.	vo-	.	vo-
4C\	4ee- 4g\	.	4C\	.	.	.	4e- 4G\	.	.	.	.	4g/	.	.	.	4ee-\	.	.	.	.
4D\	4dd 4f\	.	4D\)	.	.	.	4d 4F\)	.	.	.	.	4f/)	.	.	.	4dd\)	.	.	.	.
!	!	!	!	!	!	!	!LO:MO:mod=!null:null	!	!	!	!	!	!	!	!	!	!	!	!	!
!	!	!	!	!	!	!	!LO:TX:t=P:problem=skreślona nuta	!	!	!	!	!	!	!	!	!	!	!	!	!
4E-\	4cc 4e-\	.	4E-\	.	-lun-	-lun-	4c 4G\	.	-lun-	.	-lun-	4e-/	.	-lun-	-lun-	4cc\	.	-lun-	.	-lun-
=47	=47	=47	=47	=47	=47	=47	=47	=47	=47	=47	=47	=47	=47	=47	=47	=47	=47	=47	=47	=47
*	*^	*	*	*	*	*	*^	*	*	*	*	*	*	*	*	*	*	*	*	*
!	!	!	!	!	!	!	!	!LO:SIC:s=(2B-/:v	!LO:SIC:s=(2B-\:v	!	!	!	!	!	!	!	!	!	!	!	!	!
1F	2b- 2d/	2ryyyy	.	1F	.	-ta-	-ta-	2B-/	2B-\	.	-ta-	.	-ta-	(2d/	.	-ta-	-ta-	(2b-\	.	-ta-	.	-ta-
!	!	!	!	!	!	!	!	!	!LO:SIC:s=2A\):v	!	!	!	!	!	!	!	!	!	!	!	!	!
.	4cc/	2a\	.	.	.	.	.	4c/	2A\	.	.	.	.	4f/	.	.	.	4cc\	.	.	.	.
!	!	!	!	!	!	!	!	!LO:SIC:s=4c#X/):v	!	!	!	!	!	!	!	!	!	!	!	!	!	!
.	4cc#X/	.	.	.	.	.	.	4c#X/	.	.	.	.	.	4a/)	.	.	.	4cc#X\)	.	.	.	.
*	*v	*v	*	*	*	*	*	*v	*v	*	*	*	*	*	*	*	*	*	*	*	*	*
=48	=48	=48	=48	=48	=48	=48	=48	=48	=48	=48	=48	=48	=48	=48	=48	=48	=48	=48	=48	=48
1B- 1BB-	2dd 2b-\	.	2BB-/	.	-te	-tes,	2d 2B-\	.	-te	.	-tes,	2b-\	.	-te	-tes,	2dd\	.	-te	.	-tes,
.	4r	.	4r	.	.	.	4r	.	.	.	.	4r	.	.	.	4r	.	.	.	.
.	4dd 4b-\	.	4B-\	.	in	in	4d 4B-\	.	in	.	in	4b-\	.	in	in	4dd\	.	in	.	in
=49	=49	=49	=49	=49	=49	=49	=49	=49	=49	=49	=49	=49	=49	=49	=49	=49	=49	=49	=49	=49
1G 1GG	1dd 1b-	.	2G\	.	om-	om-	2d 2B-\	.	om-	.	om-	2b-\	.	om-	om-	2dd\	.	om-	.	om-
.	.	.	2G\	.	-nes	-nes	2d 2B-\	.	-nes	.	-nes	2b-\	.	-nes	-nes	2dd\	.	-nes	.	-nes
=50	=50	=50	=50	=50	=50	=50	=50	=50	=50	=50	=50	=50	=50	=50	=50	=50	=50	=50	=50	=50
1E- 1EE-	4gg 4b-\	.	2.E-\	.	vo-	vo-	(4g 4B-\	.	vo-	.	vo-	(4b-\	.	vo-	vo-	(4gg\	.	vo-	.	vo-
.	4dd 4bn\	.	.	.	.	.	4d 4Bn\	.	.	.	.	4bn\	.	.	.	4dd\	.	.	.	.
.	4ff 4dd\	.	.	.	.	.	4f 4d\)	.	.	.	.	4dd\)	.	.	.	4ff\)	.	.	.	.
.	4ee- 4cc\	.	4E-\	.	-lun-	-lun-	4e- 4c\	.	-lun-	.	-lun-	4cc\	.	-lun-	-lun-	4ee-\	.	-lun-	.	-lun-
=51	=51	=51	=51	=51	=51	=51	=51	=51	=51	=51	=51	=51	=51	=51	=51	=51	=51	=51	=51	=51
!	!	!	!	!	!	!	!LO:SIC:s=(1d 1B-X:v	!	!	!	!	!LO:SIC:s=(1b-X:v	!	!	!	!LO:SIC:s=(1dd:v	!	!	!	!
[1F [1FF	1dd 1b-X	.	[<1F	.	-ta-	-ta-	1d 1B-X	.	-ta-	.	-ta-	1b-X	.	-ta-	-ta-	1dd	.	-ta-	.	-ta-
=52	=52	=52	=52	=52	=52	=52	=52	=52	=52	=52	=52	=52	=52	=52	=52	=52	=52	=52	=52	=52
*	*^	*	*	*	*	*	*	*	*	*	*	*	*	*	*	*	*	*	*	*
!	!	!	!	!	!	!	!	!LO:SIC:s=1c 1A):v	!	!	!	!	!LO:SIC:s=1a):v	!	!	!	!LO:SIC:s=1cc):v	!	!	!	!
1F] 1FF]	1cc 1a	2f\	.	1F]	.	.	.	1c 1A	.	.	.	.	1a	.	.	.	1cc	.	.	.	.
.	.	2e-\	.	.	.	.	.	.	.	.	.	.	.	.	.	.	.	.	.	.	.
*	*v	*v	*	*	*	*	*	*	*	*	*	*	*	*	*	*	*	*	*	*	*
=53	=53	=53	=53	=53	=53	=53	=53	=53	=53	=53	=53	=53	=53	=53	=53	=53	=53	=53	=53	=53
*	*	*	*	*	*	*	*^	*	*	*	*	*	*	*	*	*	*	*	*	*
2B- 2BB-;\	2b- 2d;/	.	2BB-;/	.	-te	-tes.]	2B-;/	2B-\	.	-te	.	-tes.	2b-;\	.	-te	-tes.]	2b-;\	.	-te	.	-tes.
2r	2r	.	2r	.	.	.	2r	2ryy	.	.	.	.	2r	.	.	.	2r	.	.	.	.
*	*	*	*	*	*Xij	*	*	*	*	*	*	*	*	*	*Xij	*	*	*	*	*	*
*	*	*	*	*	*	*	*v	*v	*	*	*	*	*	*	*	*	*	*	*	*	*
==	==	==	==	==	==	==	==	==	==	==	==	==	==	==	==	==	==	==	==	==
*-	*-	*-	*-	*-	*-	*-	*-	*-	*-	*-	*-	*-	*-	*-	*-	*-	*-	*-	*-	*-
!!!system-decoration: [(s1,s2,s3,s4)]{(s5,s6)}
!!!RDF**kern: < = below
!!!filter-modern: tie -s | humtr -p | sic -sq | shed -e "s/LO:DY:(a|b|rj)/LO:dy:$1/L" | shed -e "s/TX(.*):t=P:/tx$1:t=P:/LG" | modori -m | autostem -r | shed -e "s/yy//" | shed -k -e "s/\(y([^y])/($1/" | shed -e "s/-//B" | shed -e "s/^(\d+[\/\\]right)/$1yy/I; s/^(\d+[\/\\]left)/$1yy/I" | shed -e "s/^(X?)rep$/$1REP/I" | shed -k -e "s/[<>]//g" | shed -e "s/^custos:/Xcustos:/I" | shed -k -e "s/:TUP:/:tup:/L" | shed -k -e "s/r[a-gA-G]+/r/D" | rid -lid
!!!ENC: Andrzej Kubiczek
!!!END: 2021-05-25
!!!ENC: Marta Lawrence
!!!END: 2021-06-06
!!!EED-modern: Antoni Szymański
!!!END-modern: 2022-07-10
